X: 151
M: 6/8
L: 1/8
K: G
V: 1
|:\
|:\
V: 2 clef=bass middle=d
|:\
g3 g3 | g3 g3 | g3 g3 | e3 d3 |\
g3 g3 | g3 g3 | g3 g3 | d3 d3 :|\
|: g3
g3 | g3 g3 | c3 c3 | c3 c3 |\
g3 g3 | g3 g3 | g3 g3 | d3 d3 :|

